tab-remove.svg

<svg fill="currentColor" viewBox="0 0 24 24"><path d="m7.46 11.88 1.42-1.42L11 12.59l2.12-2.13 1.42 1.42L12.41 14l2.13 2.12-1.42 1.42L11 15.41l-2.12 2.13-1.42-1.42L9.59 14zM3 3h18a2 2 0 0 1 2 2v14a2 2 0 0 1-2 2H3a2 2 0 0 1-2-2V5a2 2 0 0 1 2-2m0 2v14h18V9h-8V5z"/></svg>

<svg  viewBox="0 0 24 24" fill="currentColor"><path  d="M7.46,11.88L8.88,10.46L11,12.59L13.12,10.46L14.54,11.88L12.41,14L14.54,16.12L13.12,17.54L11,15.41L8.88,17.54L7.46,16.12L9.59,14L7.46,11.88M3,3H21A2,2 0 0,1 23,5V19A2,2 0 0,1 21,21H3A2,2 0 0,1 1,19V5A2,2 0 0,1 3,3M3,5V19H21V9H13V5H3Z"/></svg>
